X: 16
T: Prelude in B\b Minor, Op. 28, No. 16
C: Frederic Chopin
%%abc-version 2.0
%%abcx-abcm2ps-target-version 5.9.1 (29 Sep 2008)
%%abc-creator hum2abc beta
%%abcx-conversion-date 2021/01/25 16:34:28
%%abc-copyright Copyright 2001 by Craig Stuart Sapp
%%abc-edited-by Craig Stuart Sapp
%%gracespace 0 6 6
%%humdrum-veritas 3246784361
%%humdrum-veritas-data 663131162
%%linebreak <none>
%%barnumbers 0
L: 1/16
M: C|
N: Derived from prelude28-16.krn
Q: "Presto con fuoco" 1/2=54
%%staves {1 2}
V: 1 clef=treble
V: 2 clef=bass
K: Db
[V:1] (3:2:6!accent![E4=A4g4] !accent![E4=A4f4] !accent![E4=A4=e4] !accent![E4=A4_e4] !accent![E4=A4d4] !accent![E4=A4c4] [I:setbarnb 2]| 
[V:2] (3:2:6!accent![F,,,4F,,4] !accent![C,4F,4C4] !accent![C,4F,4C4] !accent![C,4F,4C4] !accent![C,4F,4C4] !accent![C,4F,4C4] | 
[V:1] f c e d F =A B c d e f =g =a b c' =d' | 
[V:2] B,,2 [F,2D2] z2 F,,2 B,,2 [F,2D2] z2 F,,2 | 
[V:1] e' f' =g' =a' b' c'' d'' e'' =e'' f'' _e'' d'' c'' b' a' b' | 
[V:2] B,,2 [F,2D2] z2 F,,2 B,,2 [F,2D2] z2 F,,2 | 
[V:1] a' g' f' =e' f' _e' d' c' b =a b _a g f e d | 
[V:2] B,,2 [F,2D2] z2 F,,2 B,,2 [F,2D2] z2 F,,2 | 
[V:1] c d e f g a b c' b a g f e d c e | 
[V:2] B,,2 [E,,2G,2E2] z2 B,,,2 B,,2 [E,2G,2E2] z2 B,,,2 | 
[V:1] g =d f e c G =B c _d c =d e f e =e f | 
[V:2] B,,2 [E,2G,2E2] z2 B,,,2 B,,2 [E,2G,2E2] z2 B,,,2 | 
[V:1] a =g =a b d' c' d' =d' f' e' =e' f' a' b' a' =g' | 
[V:2] B,,2 [E,2G,2E2] z2 B,,,2 B,,2 [E,2G,2E2] z2 B,,2 | 
[V:1] g' f'' e'' e' d'' c'' c' b' =a' =a _a' g' g f' e' g | 
[V:2] =A,,2 [G,2E2] z2 =A,,,2 A,,2 [G,2E2] z2 A,,2 | 
[V:1] f e' d' f d' c' e c' d b a c a g B g | 
[V:2] B,,2 [F,2D2] z2 B,,2 D,2 [F,2B,2F2] z2 D,2 | 
[V:1] =A B c d e =e f g =e f =d _e c _d c B | 
[V:2] E,2 [=A,2G2] z2 E,2 D,2 [F,2B,2F2] z2 D,2 | 
[V:1] =A B c d e =e f g =e f =d _e c _d c B | 
[V:2] E,2 [=A,2G2] z2 E,2 D,2 [F,2B,2F2] z2 D,2 | 
[V:1] =B c =d e =e f =g ^g ^f =g =e =f =d _e =d c | 
[V:2] F,2 [=B,2A2] z2 F,2 E,2 [=G,2C2=G2] z2 E,2 | 
[V:1] =B c =d e =e f =g a ^f =g =e =f =d _e =d c | 
[V:2] F,2 [=B,2A2] z2 F,2 E,2 [=G,2C2=G2] z2 E,2 | 
[V:1] d e f g a b =b c' ^c' =d' f' e' =c' =a g e | 
[V:2] F,2 [A,2D2A2] z2 F,2 G,2 [=A,2D2=A2] z2 G,2 | 
[V:1] d e f g a b =b c' d' c' e' d' _b =g =e d | 
[V:2] F,2 [A,2D2A2] z2 F,2 =E,2 [B,2D2=G2] z2 E,2 | 
[V:1] c d =d e =e f g =g a =a c' b _g f _e _d | 
[V:2] E,2 [=A,2C2G2] z2 E,2 D,2 [F,2B,2F2]z4 | 
[V:1] c B =A c G F =E F G F B =A d c a g | 
[V:2] F,,2 z2!arpeggio![C,4F,4=A,4E4]z8 | 
[V:1] f c e d F =A B c d e f =g =a b c' d' | 
[V:2] [B,,,2B,,2] [D,2F,2D2] z2 [F,,,2F,,2] [B,,,2B,,2] [D,2F,2D2] z2 [F,,,2F,,2] | 
[V:1] e' f' =g' =a' b' c'' d'' e'' =e'' f'' _e'' d'' c'' b' =a' b' | 
[V:2] [B,,,2B,,2] [D,2F,2D2] z2 [F,,,2F,,2] [B,,,2B,,2] [D,2F,2D2] z2 [F,,,2F,,2] | 
[V:1] a' g' f' =e' f' _e' d' c' b =a b _a g f e d | 
[V:2] [B,,,2B,,2] [D,2F,2D2] z2 [F,,,2F,,2] [B,,,2B,,2] [D,2F,2D2] z2 [F,,,2F,,2] | 
[V:1] c d e f g a b c' b a g f e d c e | 
[V:2] [B,,,2B,,2] [E,2G,2E2] z2 [F,,,2F,,2] [B,,,2B,,2] [E,2G,2=D2E2] z2 [F,,,2F,,2] | 
[V:1] g =d _f e c G =B c _d c =d e f e =e =f | 
[V:2] [__B,,,2__B,,2] [E,2G,2E2] z2 [E,,,2E,,2] [B,,,2B,,2] [E,2G,2E2] z2 [E,,,2E,,2] | 
[V:1] a g =b c' d' c' =d' e' =f' e' =e' f' a' b' a' =g' | 
[V:2] [__B,,,2__B,,2] [E,2G,2E2] z2 [E,,,2E,,2] [B,,,2B,,2] [E,2G,2E2] z2 [E,,,2E,,2] | 
[V:1] g' f'' e'' g' e'' d'' f' d'' c'' e' c'' b' d' b' a' c' | 
[V:2] [A,,,2A,,2] [E,2C2G2] z2 [E,,,2E,,2] [A,,,2A,,2] [E,2C2G2] z2 A,,,2 | 
[V:1] a' g' b g' f' a f' e' g e' d' f b a f d | 
[V:2] A,,2 [F,2D2F2] z2 A,,,2 A,,2 [F,2D2] z2 A,,,2 | 
[V:1] c d e =e f g a __b =g a _e _f A f e d | 
[V:2] A,,2 [E,2G,2C2] z2 A,,,2 A,,2 [_F,2D2] z2 A,,,2 | 
[V:1] c d e =e =f g a __b =g a _e _f A f d _c | 
[V:2] A,,2 [E,2G,2C2] z2 A,,2 D,2 [_F,2D2] z2 =G,,2 | 
[V:1] ^A =B ^c =d ^d =e ^f =g ^e f d =e c =d =B =A | 
[V:2] ^F,,2 [F,,2^A,2=E2] z2 ^F,,,2 F,,2 [^F,2=B,2=D2] z2 =F,,2 | 
[V:1] ^G =A =B =c ^c =d =e =f ^d e c =d =B =c B A | 
[V:2] =E,,2 [=E,2^G,2=D2] z2 =E,,,2 E,,2 [E,2=A,2=C2] z2 [E,,,2E,,2] | 
[V:1] ^G =A d c B A g f e d c' b a g f e | 
[V:2] [=F,,,2=F,,2] z2!arpeggio![C,4F,4E4]!arpeggio![B,,4F,4D4]!arpeggio![E,4B,4G4] | 
[V:1] d c b a g f e d c B a g f e d c | 
[V:2] !arpeggio![A,,4G,4C4]!arpeggio![D,4A,4F4]!arpeggio![G,,4D,4B,4]!arpeggio![C,4G,4E4] | 
[V:1] B =A _A =G A G _G F =G _G F =E G F E _E | 
[V:2] [D,4F,4B,4D4][E,4G,4B,4C4]z4G, F, =E, _E, | 
[V:1] F =E _E =D =E _E D _D E =D _D C E D C B, | 
[V:2] F, =E, _E, =D, =E, _E, D, _D, E, =D, _D, C, E, D, C, B,, | 
[V:1] =A, B, C D E =E F G E F =D _E C _D C B, | 
[V:2] E,,2 [=A,,2G,2] z2 E,,2 D,,2 [B,,2F,2] z2 D,,2 | 
[V:1] =A, B, C D E =E F G =E F =D _E C _D C B, | 
[V:2] E,,2 [=A,,2G,2] z2 E,,2 D,,2 [B,,2F,2] z2 D,,2 | 
[V:1] C D E F G c B C B, C D E F c B G | 
[V:2] E,,2 [B,,2G,2] z2 E,,2 F,,2 [D,2B,2] z2 F,,,2 | 
[V:1] =E F G F B =A g f e d B F _E D B, F, | 
[V:2] F,,2 [E,2=A,2] z2 F,,2 B,,2 [F,2D2] z2 D,,2 | 
[V:1] =A, B, C D E =E F G E F =D _E C _D C B, | 
[V:2] E,,2 [=A,,2G,2] z2 E,,2 D,,2 [B,,2F,2] z2 D,,2 | 
[V:1] =A, B, C D E =E F G =E F =D _E C _D C B, | 
[V:2] E,,2 [=A,,2G,2] z2 E,,2 D,,2 [B,,2F,2] z2 D,,2 | 
[V:1] _C D E _F G A B _c d e _f g a b _c' d' | 
[V:2] [E,,4_C,4G,4]z4[E,4G,4=B,4G4][D,4G,4_B,4_F4] | 
[V:1] _f' e' _c' a g e _c A G E _C A, G, E, _C, A,, | 
[V:2] [=B,,4G,4]z4z8 & E8x8 | 
[V:1] =E,, F,, B,, =A,, G,, F,, D, =C, B,, =A,, G, F, D, C, B, =A, | 
[V:2] =E,,, F,,, B,,, =A,,, G,, F,,, D,, =C,, B,,, A,,, G,, F,, D,, C,, B,, =A,, | 
[V:1] G, F, D C B, =A, G F D C B =A G F d c | 
[V:2] G,, F,, D, C, B,, =A,, G, F, D, C, B, =A, G, F, D C | 
[V:1] B =A g f d c b =a g f d' c' b =a g' f' | 
[V:2] B, =A, G F D C B =A G F d c B =A g f | 
[V:1] d' c' b' =a' g' f' d'' c'' f''2 z2[E4=A4f4] | 
[V:2] d c b =a g f d' c' f'2 z2[F,,4F,4] | 
[V:1] [B4b4]z4z8 |]  
[V:2] {/B,,,}[B,,4F,4D4]z4z8 |]  


